Newaita-dark/actions/24/tab-duplicate.svg

<svg height="24" viewBox="0 0 24 24" width="24" xmlns="http://www.w3.org/2000/svg"><g fill="#e0e0e0"><path d="m1.984375 17.054688h4.464844c.273437 0 .496093.222656.496093.496093 0 .277344-.222656.496094-.496093.496094h-4.464844c-.273437 0-.496094-.21875-.496094-.496094 0-.273437.222657-.496093.496094-.496093zm0 0"/><path d="m9.921875 13.085938c-.546875 0-.992187.445312-.992187.992187v5.953125h1.984374v-4.464844c0-.273437.222657-.496094.496094-.496094h7.9375c.277344 0 .496094.222657.496094.496094v4.464844h1.988281v-5.953125c0-.546875-.445312-.992187-.992187-.992187zm0 0"/><path d="m7.9375 21.027344h13.894531c.273438 0 .496094.203125.496094.453125v.082031c0 .25-.222656.457031-.496094.457031h-13.894531c-.273438 0-.496094-.207031-.496094-.457031v-.082031c0-.25.222656-.453125.496094-.453125zm0 0"/><path d="m3.96875 4.15625c-1.097656 0-1.984375.886719-1.984375 1.984375v9.921875h1.984375v-8.929688c0-.550781.441406-.992187.992188-.992187h13.890624c.550782 0 .992188.441406.992188.992187v3.96875h1.988281v-4.960937c0-1.097656-.886719-1.984375-1.988281-1.984375zm0 0"/></g></svg>

<?xml version="1.0" encoding="UTF-8"?>
<svg xmlns="http://www.w3.org/2000/svg" xmlns:xlink="http://www.w3.org/1999/xlink" width="24px" height="24px" viewBox="0 0 24 24" version="1.1">
<g id="surface1">
<path style=" stroke:none;fill-rule:nonzero;fill:rgb(87.843138%,87.843138%,87.843138%);fill-opacity:1;" d="M 1.984375 17.054688 L 6.449219 17.054688 C 6.722656 17.054688 6.945312 17.277344 6.945312 17.550781 C 6.945312 17.828125 6.722656 18.046875 6.449219 18.046875 L 1.984375 18.046875 C 1.710938 18.046875 1.488281 17.828125 1.488281 17.550781 C 1.488281 17.277344 1.710938 17.054688 1.984375 17.054688 Z M 1.984375 17.054688 "/>
<path style=" stroke:none;fill-rule:nonzero;fill:rgb(87.843138%,87.843138%,87.843138%);fill-opacity:1;" d="M 9.921875 13.085938 C 9.375 13.085938 8.929688 13.53125 8.929688 14.078125 L 8.929688 20.03125 L 10.914062 20.03125 L 10.914062 15.566406 C 10.914062 15.292969 11.136719 15.070312 11.410156 15.070312 L 19.347656 15.070312 C 19.625 15.070312 19.84375 15.292969 19.84375 15.566406 L 19.84375 20.03125 L 21.832031 20.03125 L 21.832031 14.078125 C 21.832031 13.53125 21.386719 13.085938 20.839844 13.085938 Z M 9.921875 13.085938 "/>
<path style=" stroke:none;fill-rule:nonzero;fill:rgb(87.843138%,87.843138%,87.843138%);fill-opacity:1;" d="M 7.9375 21.027344 L 21.832031 21.027344 C 22.105469 21.027344 22.328125 21.230469 22.328125 21.480469 L 22.328125 21.5625 C 22.328125 21.8125 22.105469 22.019531 21.832031 22.019531 L 7.9375 22.019531 C 7.664062 22.019531 7.441406 21.8125 7.441406 21.5625 L 7.441406 21.480469 C 7.441406 21.230469 7.664062 21.027344 7.9375 21.027344 Z M 7.9375 21.027344 "/>
<path style=" stroke:none;fill-rule:nonzero;fill:rgb(87.843138%,87.843138%,87.843138%);fill-opacity:1;" d="M 3.96875 4.15625 C 2.871094 4.15625 1.984375 5.042969 1.984375 6.140625 L 1.984375 16.0625 L 3.96875 16.0625 L 3.96875 7.132812 C 3.96875 6.582031 4.410156 6.140625 4.960938 6.140625 L 18.851562 6.140625 C 19.402344 6.140625 19.84375 6.582031 19.84375 7.132812 L 19.84375 11.101562 L 21.832031 11.101562 L 21.832031 6.140625 C 21.832031 5.042969 20.945312 4.15625 19.84375 4.15625 Z M 3.96875 4.15625 "/>
</g>
</svg>
